X:1
T: Fifty-Fifty
N:
C:Tune is "The Boat of Loch Lavan"
S:Play A1,A2,B1,B2 three times, then C
A:
O:
R:
M:4/4
K:G
I:speed 200
%W: A1
% voice 1 (1 lines, 43 notes)
K:G
M:4/4
L:1/16
e2 f2 |g4 e4 f4 d4 |e4 e2 d2 B4 e2 f2 |g4 e4 f4 e2 f2 |e6 ^d2 e4 e2 f2 |g4 e4 f4 d4 |e2 f2 e2 d2 B2 d2 A2 B2 |c4 A4 B4 G4 |A6 ^G2 A4 e2 f2 |
%W: A2
% voice 1 (1 lines, 39 notes)
g4 e4 f4 d4 |e4 e2 d2 B4 e2 f2 |g4 e4 f4 e2 f2 |e6 ^d2 e4 e2 f2 |g4 e4 f4 d4 |e2 f2 e2 d2 B2 d2 A2 B2 |c4 A4 B4 G4 |A6 ^G2 A8 |
%W: B1
% voice 1 (1 lines, 49 notes)
K:Am
e2 a4 g2 a2 g2 e2 g2 |e2 g2 a2 b2 a4 g2 f2 |e2 f4 g2 a2 g2 d2 c2 |B4 G2 F2 G4 c2 B2 |A2 G4 B2 A2 G2 E2 G2 |A2 G2 A2 B2 c4 d4 |e2 f2 g2 a2 g4 e4 |A6 ^G2 A8 |
%W: B2
% voice 1 (1 lines, 49 notes)
e2 a4 g2 a2 g2 e2 g2 |e2 g2 a2 b2 a4 g2 f2 |e2 f4 g2 a2 g2 d2 c2 |B4 G2 F2 G4 c2 B2 |A2 G4 B2 A2 G2 E2 G2 |A2 G2 A2 B2 c4 d4 |e2 f2 g2 a2 g4 e4 |A6 ^G2 A4 ||
%W: C
% voice 1 (1 lines, 41 notes)
K:G
e2 f2 |g4 e4 f4 d4 |e4 e2 d2 B4 e2 f2 |g4 e4 f4 e2 f2 |e6 ^d2 e4 e2 f2 |g4 e4 f4 d4 |e2 f2 e2 d2 B2 d2 A2 B2 |c4 A4 B4 G4 |A6 ^G2 A8 |||
